!!!SOCIAL_FUNCTION:	miscellaneous songs
!!!PDT:	1956
!!!OTL: No_234_My_Old_Slaves.krn
!!!LANG: Non-Tone
!!!LING_GROUP: Muskogean
!!!REG: Florida
**kern
*staff1
=1-
=
*clefF4
*k[b-e-a-]
*M2/4
8D\L
16D\L
16D\JJ
4D\
=2||
*M3/4
8.D/L
16BB-/Jk
8AA-/L
16GG/L
16EE-/JJ
8EE-/
8r
=3||
*M2/4
8.D/L
16BB-/Jk
8AA-/L
16GG/L
16EE-/JJ
=4
4.GG/
16EE-/LL
16EE-/JJ
=5||
*M3/4
8.GG/L
16EE-/Jk
4GG/
8.r
16GG/
=6||
*M2/4
8.AA-/L
16AA-/Jk
8.AA-/L
16AA-/Jk
=7
8.AA-/L
16AA-/Jk
8AA-/
8r
=8
8.AA-/L
16AA-/Jk
8.AA-/L
16AA-/Jk
=9||
*M3/8
8.AA-/L
16AA-/K
8AA-/J
=10
8.D/L
16BB-/L
16AA-/
16GG/JJ
=11||
*M3/4
8.AA-/L
16GG/Jk
8.EE-/L
16EE-/Jk
4r
=12||
*M5/8
8.D/L
16BB-/L
16AA-/
16GG/J
8AA-/
16AA-/L
16EE-/JJ
=13||
*M4/4
(4GG/
12GG/L)
12EE-/
12GG/J
12GG/L
12EE-/
12GG/J
4GG/
==:|!
*-
